X:60
T:Martha's Old Pine Tree
R:jig
C:Bruce Osborne - May 2002
Z:bosborne@kos.net
M:6/8
L:1/8
K:Bb
c|dBF DFB|gf=e fcd|ecc AcA|gf=e fBc|
dBF DFB|gf=e fcd|ecc AcA|FGA B2:|
|:c|dBF DFB|DFB Bcd|ecA ecA|gf=e fBc|
dBF DFB|DFB Bcd|ecc AcA|FGA B2:|
